Sources/FrostedUI/Resources/Icons.xcassets/globeInSquare32.imageset/globe-in-square-32.svg

<svg width="32" height="32" viewBox="0 0 32 32" fill="none" xmlns="http://www.w3.org/2000/svg" data-fui-icon="true">
  <path
    d="M27 2.5C28.933 2.5 30.5 4.067 30.5 6V26C30.5 27.933 28.933 29.5 27 29.5H5C3.067 29.5 1.5 27.933 1.5 26V6C1.5 4.067 3.067 2.5 5 2.5H27ZM5 4C3.89543 4 3 4.89543 3 6V26L3.01074 26.2041C3.1062 27.1457 3.85435 27.8938 4.7959 27.9893L5 28H27L27.2041 27.9893C28.2128 27.887 29 27.0357 29 26V6C29 4.89543 28.1046 4 27 4H5ZM16 7.75C20.5563 7.75 24.25 11.4437 24.25 16C24.25 20.5563 20.5563 24.25 16 24.25C11.4437 24.25 7.75 20.5563 7.75 16C7.75 11.4437 11.4437 7.75 16 7.75ZM13.7656 16.75C13.8356 18.4423 14.1392 19.9344 14.5752 21.0244C14.8257 21.6507 15.1049 22.1078 15.377 22.3955C15.6475 22.6816 15.8585 22.75 16 22.75C16.1415 22.75 16.3525 22.6816 16.623 22.3955C16.8951 22.1078 17.1743 21.6507 17.4248 21.0244C17.8608 19.9344 18.1644 18.4423 18.2344 16.75H13.7656ZM9.29102 16.75C9.56902 19.2649 11.2288 21.3633 13.4941 22.2695C13.3821 22.0519 13.2785 21.8217 13.1826 21.582C12.6654 20.2889 12.3353 18.6004 12.2646 16.75H9.29102ZM19.7354 16.75C19.6647 18.6004 19.3346 20.2889 18.8174 21.582C18.7215 21.8217 18.6179 22.0519 18.5059 22.2695C20.7712 21.3633 22.431 19.2649 22.709 16.75H19.7354ZM13.4941 9.73047C11.2288 10.6367 9.56902 12.7351 9.29102 15.25H12.2646C12.3353 13.3996 12.6654 11.7111 13.1826 10.418C13.2785 10.1783 13.3821 9.9481 13.4941 9.73047ZM16 9.25C15.8585 9.25 15.6475 9.3184 15.377 9.60449C15.1049 9.89217 14.8257 10.3493 14.5752 10.9756C14.1392 12.0656 13.8356 13.5577 13.7656 15.25H18.2344C18.1644 13.5577 17.8608 12.0656 17.4248 10.9756C17.1743 10.3493 16.8951 9.89217 16.623 9.60449C16.3525 9.3184 16.1415 9.25 16 9.25ZM18.5059 9.73047C18.6179 9.9481 18.7215 10.1783 18.8174 10.418C19.3346 11.7111 19.6647 13.3996 19.7354 15.25H22.709C22.431 12.7351 20.7712 10.6367 18.5059 9.73047Z"
    fill="currentColor"
  />
</svg>

<svg xmlns="http://www.w3.org/2000/svg" width="32" height="32" fill="none" data-fui-icon="true" viewBox="0 0 32 32"><path fill="currentColor" d="M27 2.5A3.5 3.5 0 0 1 30.5 6v20a3.5 3.5 0 0 1-3.5 3.5H5A3.5 3.5 0 0 1 1.5 26V6A3.5 3.5 0 0 1 5 2.5zM5 4a2 2 0 0 0-2 2v20l.01.204a2 2 0 0 0 1.786 1.785L5 28h22l.204-.01A2 2 0 0 0 29 26V6a2 2 0 0 0-2-2zm11 3.75a8.25 8.25 0 1 1 0 16.5 8.25 8.25 0 0 1 0-16.5m-2.234 9c.07 1.692.373 3.184.81 4.274.25.627.529 1.084.801 1.371.27.287.481.355.623.355s.352-.068.623-.355c.272-.287.551-.744.802-1.37.436-1.09.74-2.583.81-4.275zm-4.475 0a6.76 6.76 0 0 0 4.203 5.52 8 8 0 0 1-.311-.688c-.518-1.293-.848-2.982-.918-4.832zm10.444 0c-.07 1.85-.4 3.539-.918 4.832q-.144.36-.311.688a6.76 6.76 0 0 0 4.203-5.52zm-6.24-7.02a6.76 6.76 0 0 0-4.204 5.52h2.974c.07-1.85.4-3.539.918-4.832q.144-.36.311-.688M16 9.25c-.142 0-.352.068-.623.354-.272.288-.551.745-.802 1.372-.436 1.09-.74 2.582-.81 4.274h4.47c-.07-1.692-.374-3.184-.81-4.274-.25-.627-.53-1.084-.802-1.372-.27-.286-.482-.354-.623-.354m2.506.48q.167.328.311.688c.518 1.293.848 2.982.918 4.832h2.974a6.76 6.76 0 0 0-4.203-5.52"/></svg>
